X:1
T:Keepers, 87.87 D
T:Walter M. Keepers, 1903
T:Keepers, 87.87 D
T:Public Domain
C:Walter M. Keepers, 1903
Z:Public Domain
%%score ( 1 2 ) ( 3 4 )
L:1/8
M:3/4
K:Eb
V:1 treble 
V:2 treble 
V:3 bass 
V:4 bass 
V:1
 [B,E]>[B,F] | [EG]3 [EG] [EA]>[EA] | [EG]2 [B,E]2 [EG]>[GB] | [FB]3 [DF] [DG]>[DA] | %4
 [EG]4 [EB]>[EB] | [Ec]3 [Ec] [EA]>[Ec] | [EB]2 [Ee]2 [Ed]>[Ec] | [EB]3 [B,E] [DG]>[DF] | %8
 [B,E]4 z2 | [GB]>[GB] | [Ac]4- [Ac]>[Ac][EA]>[Ac] | [GB]4 [EG]2 [GB]>[EB] | %12
 [DB]4- [DB]>[DF][DG]>[DA] | [EG]6 [GB]>[GB] | [Ac]4- [Ac]>[Ae][Ed]>[Ec] | [EB]2 [Ee]4 E>[EF] | %16
 [EG]4- [EG]>[FA][DG]>[DF] | (B,2 C2 B,2) |] %18
V:2
 x2 | x6 | x6 | x6 | x6 | x6 | x6 | x6 | x6 | x2 | x8 | x8 | x8 | x8 | x8 | x6 E3/2 x/ | x8 | E6 |] %18
V:3
 [E,G,]>[E,A,] | [E,B,]3 [E,B,] [E,C]>[E,_C] | [E,B,]2 [E,G,]2 [E,B,]>[E,E] | %3
 [B,,D]3 [B,,B,] [B,,B,]>[B,,B,] | [E,B,]4 [E,G,]>[E,G,] | [A,,A,]3 [A,,A,] [A,,C]>[A,,A,] | %6
 [E,G,]2 [C,G,]2 [G,,B,]>[A,,A,] | [B,,G,]3 [B,,G,] [B,,B,]>[B,,A,] | [E,G,]4 z2 | z2 | %10
 z2 [A,E]>[A,E] [A,E]>[A,E][A,C]>[A,E] | [E,E]4 [E,B,]2 z2 | %12
 z2 [B,,B,]>[B,,B,] [B,,B,]>[B,,B,][B,,B,]>[B,,B,] | [E,B,]6 z2 | %14
 z2 [A,E]>[A,E] [A,E]>[A,C][A,B,]>A, | [E,G,]2 [_C,_G,]4 z2 | %16
 z2 [E,B,]>[D,B,] [C,C]>[F,,C][B,,B,]>[B,,A,] | G,2 A,2 G,2 |] %18
V:4
 x2 | x6 | x6 | x6 | x6 | x6 | x6 | x6 | x6 | x2 | x8 | x8 | x8 | x8 | x15/2 A,/ | x8 | x8 | E,6 |] %18

